X:1
T:Title
%%score { ( 1 3 ) | 2 }
L:1/8
Q:1/4=114
M:3/4
K:Ab
V:1 treble nm="Grand Piano"
V:3 treble 
V:2 bass 
V:1
 [Ec]2 [DB]2 [CA]2 | [CE]2 [_C=D]2 [=CE]2 | [DF]6 | [DG]6 | [CA]2 [CE]2 [CA]2 | B2 E2 B2 | c6- | %7
w: Albert~Allen~Ketchum * *|||||||
 [_Gc]6 | [FB]2 [FB]2 [FB]2 | [FB]2 [A,FA]2 [A,DF]2 | [A,CA]6 | [A,CE]6 | [CA]2 [A,CA]2 [A,CA]2 | %13
w: ||||||
 [C=DA]2 [B,DG]2 [DA]2 | [DB]6- | [DB]6 | [Ece]2 [Fce]2 [Gce]2 | [Ace]2 [Bde]2 [ce]2 | [F=d]6 | %19
w: ||||||
 [B=d]6 | [Bd]2 [GBd]2 [Fd]2 | [Bd]2 [Gd]2 [Fd]2 | [EAc]6- | [EAc]6 | [Ece]2 [Fce]2 [Gce]2 | %25
w: ||||||
 [Ace]2 [Bde]2 [ce]2 | [Fce]6 | [FBd]6 | [EAc]2 [A,CE]2 [Ad]2 | c2- [G,DEGc]2 [EGB]2 | %30
w: |||||
 A2- [EA-]2 [DA-]2 | [E,CA]6 |] %32
w: ||
V:2
 [A,,A,]2 [A,,A,]2 [A,,A,]2 | [A,,A,]2 [A,,A,]2 [A,,A,]2 | [D,A,]6 | [B,,E,]6 | %4
 [A,,E,]2 [A,,A,]2 [A,,E,]2 | [E,G,D]2 [E,G,]2 [E,G,E]2 | [A,,A,]6- | [A,,A,]6 | %8
 [D,A,]2 [D,A,]2 [D,A,]2 | [D,A,]2 D,2 D,2 | A,,6 | A,,6 | F,2 F,2 F,2 | B,,2 B,,2 [B,,F,]2 | %14
 [E,G,]6- | [E,G,]6 | A,,2 [E,A,C]2 [E,A,C]2 | A,,2 [E,A,C]2 [E,A,C]2 | B,,2 A,2 A,2 | %19
 B,,2 A,2 A,2 | E,2 [G,B,E]2 [G,B,E]2 | E,,2 [G,B,E]2 [G,B,E]2 | A,,2 E,2 E,2 | E,,2 E,2 E,2 | %24
 A,,2 [E,A,C]2 [E,A,C]2 | E,,2 [E,A,C]2 [E,A,C]2 | F,,2 F,2 F,2 | B,,2 F,2 F,2 | E,,2 E,2 F2 | %29
 E,,2 E,2 [E,G,D]2 | [A,,E,]2 G,2 F,=E, | A,,6 |] %32
V:3
 x6 | x6 | x6 | x6 | x6 | x6 | E6 | x6 | x6 | x6 | x6 | x6 | x6 | x6 | x6 | x6 | x6 | x6 | %18
 z2 [B,=D]2 [B,D]2 | z2 [B,=D]2 [B,D]2 | x6 | x6 | z2 [A,C]2 [A,C]2 | z2 [A,C]2 [A,C]2 | x6 | x6 | %26
 z2 [=A,CE]2 [A,CE]2 | z2 [B,D]2 [B,D]2 | x6 | [EG]2 z2 z2 | C2 z2 z2 | x6 |] %32

